src/topics/icons/maestro.svg

<svg height="199" preserveAspectRatio="xMidYMid" viewBox="0 0 256 199" width="256" xmlns="http://www.w3.org/2000/svg"><path d="m162.611457 141.314624h-69.222522v-124.4013525h69.222522z" fill="#6c6bbd"/><path d="m97.782719 79.1164824c0 25.2353866 11.815412 47.7143476 30.215063 62.2006766-13.455185 10.593128-30.4363815 16.915808-48.8913615 16.915808-43.6903671 0-79.10642437-35.421088-79.10642437-79.1164846 0-43.6953967 35.41605727-79.1164839 79.10642437-79.1164839 18.45498 0 35.4361765 6.32267919 48.8913615 16.9158075-18.399651 14.4863293-30.215063 36.9652899-30.215063 62.2006764" fill="#d32011" transform="matrix(1 0 0 -1 0 158.232966)"/><path d="m255.999994 79.1164824c0-43.6953967-35.416058-79.1164839-79.106424-79.1164839-18.45498 0-35.436178 6.32267919-48.896392 16.9158075 18.404681 14.4863293 30.220093 36.9652899 30.220093 62.2006764 0 25.2353866-11.815412 47.7143476-30.220093 62.2006766 13.460214 10.593128 30.441412 16.915808 48.896392 16.915808 43.690366 0 79.106424-35.421088 79.106424-79.1164846" fill="#0099df" transform="matrix(1 0 0 -1 0 158.232966)"/><path d="m186.032633 192.824108c.920485 0 2.243369-.176049 3.254394-.573417l-1.408393-4.305659c-.965756.397368-1.931511.528148-2.857027.528148-2.987805 0-4.481708-1.93151-4.481708-5.402194v-11.780202h-4.572247v21.005177h4.526978v-2.550197c1.187074 1.846001 2.902295 3.078344 5.538003 3.078344zm-16.890658-4.703026h-7.469514v-9.491564c0-2.10756.744437-3.515953 3.033076-3.515953 1.187074 0 2.680977.397368 4.03907 1.187074l1.317853-3.908291c-1.448632-1.011025-3.732241-1.629712-5.709021-1.629712-5.407224 0-7.293465 2.902296-7.293465 7.781372v9.577074h-4.265419v4.174879h4.265419v6.372979h4.612487v-6.372979h7.469514zm-58.493585-4.481708c.487908 3.033075 2.328879 5.100394 5.583273 5.100394 2.942536 0 4.833806-1.846001 5.316684-5.100394zm15.648254-1.846001c-.045269 6.549027-4.08937 11.030735-9.979471 11.030735-6.15166 0-10.457319-4.481708-10.457319-11.030735 0-6.674778 4.481708-11.025707 10.769178-11.025707 3.163854 0 6.06112.789707 8.611318 2.942536l-2.24337 3.385173c-1.755461-1.408393-3.99883-2.198099-6.10639-2.198099-2.942535 0-5.623513 1.363124-6.282439 5.140635h15.597954c.04527.573417.090539 1.141804.090539 1.755462zm20.079662 5.140635c-1.272583.794736-3.863021 1.80576-6.543998 1.80576-2.504927 0-3.998831-.925515-3.998831-2.464687 0-1.403364 1.579413-1.800732 3.556193-2.06229l2.15283-.306829c4.572247-.663956 7.338734-2.595467 7.338734-6.287469 0-3.99883-3.515953-6.855857-9.577074-6.855857-3.430443 0-6.594297.880246-9.099225 2.726247l2.152829 3.561223c1.539173-1.187074 3.827812-2.1981 6.991666-2.1981 3.118585 0 4.788537.920486 4.788537 2.550198 0 1.182044-1.187074 1.846001-3.692002 2.193069l-2.152829.306828c-4.703028.663957-7.253225 2.771517-7.253225 6.19693 0 4.17488 3.430443 6.725077 8.747127 6.725077 3.339904 0 6.372979-.749465 8.566048-2.198098zm56.360876 1.549232c-.940606 0-1.810792-.165989-2.620618-.492938-.804796-.331978-1.503962-.794736-2.09247-1.388273-.588507-.593537-1.051265-1.307793-1.388273-2.137739-.337009-.829947-.502997-1.745402-.502997-2.741337 0-1.000965.165988-1.911391.502997-2.741337.337008-.829946.799766-1.544203 1.388273-2.13774.588508-.593537 1.287674-1.056295 2.09247-1.388273.809826-.331978 1.680012-.492937 2.620618-.492937.940605 0 1.81582.160959 2.620617.492937.809825.331978 1.514022.794736 2.10253 1.388273.598567.593537 1.061324 1.307794 1.403363 2.13774.337008.829946.502997 1.740372.502997 2.741337 0 .995935-.165989 1.91139-.502997 2.741337-.342039.829946-.804796 1.544202-1.403363 2.137739-.588508.593537-1.292705 1.056295-2.10253 1.388273-.804797.326949-1.680012.492938-2.620617.492938zm-.000001 4.340868c1.629712 0 3.138705-.281678 4.526978-.850065 1.388273-.563358 2.590437-1.343003 3.601462-2.333909 1.016055-.990905 1.805762-2.162889 2.379179-3.510923.573417-1.353063.860126-2.821816.860126-4.406258 0-1.584443-.286709-3.053195-.860126-4.406258-.573417-1.348034-1.363124-2.525048-2.379179-3.515954-1.011025-.990905-2.213189-1.765521-3.601462-2.333908-1.388273-.563357-2.897266-.845036-4.526978-.845036s-3.138705.281679-4.526978.845036c-1.388273.568387-2.580377 1.343003-3.586372 2.333908-1.005995.990906-1.795702 2.16792-2.369119 3.515954-.573417 1.353063-.860126 2.821815-.860126 4.406258 0 1.584442.286709 3.053195.860126 4.406258.573417 1.348034 1.363124 2.520018 2.369119 3.510923 1.005995.990906 2.198099 1.770551 3.586372 2.333909 1.388273.568387 2.897266.850065 4.526978.850065zm-118.7879005-11.030735c0 3.692002 2.4194185 6.725077 6.372979 6.725077 3.7775115 0 6.327709-2.902296 6.327709-6.725077 0-3.822782-2.5501975-6.720048-6.327709-6.720048-3.9535605 0-6.372979 3.028046-6.372979 6.720048zm17.0063465 0v10.502588h-4.567217v-2.550197c-1.453663 1.89127-3.646732 3.078344-6.6345375 3.078344-5.8901015 0-10.502589-4.612487-10.502589-11.030735 0-6.413219 4.6124875-11.030737 10.502589-11.030737 2.9878055 0 5.1808745 1.187075 6.6345375 3.078345v-2.550197h4.567217zm-25.7484435-10.502589v13.183565c0 4.964586-3.163855 8.30449-8.25922 8.349759-2.680977.045271-5.4524935-.789706-7.384004-3.737271-1.448633 2.328879-3.7372715 3.737271-6.946396 3.737271-2.238339 0-4.4364383-.658926-6.15166-3.118584v2.590437h-4.5672177v-21.005177h4.6124875v11.644393c0 3.646732 2.0220501 5.583273 5.1406347 5.583273 3.0330755 0 4.572248-1.97678 4.572248-5.538004v-11.689662h4.6124875v11.644393c0 3.646732 2.1125895 5.583273 5.140635 5.583273 3.1236145 0 4.6175175-1.97678 4.6175175-5.538004v-11.689662z" fill="#110f0d" transform="matrix(1 0 0 -1 0 369.290736)"/></svg>

<?xml version="1.0" encoding="UTF-8"?>
<svg width="256px" height="199px" viewBox="0 0 256 199" version="1.1" xmlns="http://www.w3.org/2000/svg" xmlns:xlink="http://www.w3.org/1999/xlink" preserveAspectRatio="xMidYMid">
	<g>
		<polygon fill="#6C6BBD" points="162.611457 141.314624 93.388935 141.314624 93.388935 16.9132715 162.611457 16.9132715"></polygon>
		<path d="M97.782719,79.1164824 C97.782719,104.351869 109.598131,126.83083 127.997782,141.317159 C114.542597,151.910287 97.5614005,158.232967 79.1064205,158.232967 C35.4160534,158.232967 -3.86542948e-06,122.811879 -3.86542948e-06,79.1164824 C-3.86542948e-06,35.4210857 35.4160534,-1.5e-06 79.1064205,-1.5e-06 C97.5614005,-1.5e-06 114.542597,6.32267769 127.997782,16.915806 C109.598131,31.4021353 97.782719,53.8810959 97.782719,79.1164824" fill="#D32011" transform="translate(63.998889, 79.116483) scale(1, -1) translate(-63.998889, -79.116483) "></path>
		<path d="M255.999994,79.1164824 C255.999994,35.4210857 220.583936,-1.5e-06 176.89357,-1.5e-06 C158.43859,-1.5e-06 141.457392,6.32267769 127.997178,16.915806 C146.401859,31.4021353 158.217271,53.8810959 158.217271,79.1164824 C158.217271,104.351869 146.401859,126.83083 127.997178,141.317159 C141.457392,151.910287 158.43859,158.232967 176.89357,158.232967 C220.583936,158.232967 255.999994,122.811879 255.999994,79.1164824" fill="#0099DF" transform="translate(191.998586, 79.116483) scale(1, -1) translate(-191.998586, -79.116483) "></path>
		<path d="M186.032633,192.824108 C186.953118,192.824108 188.276002,192.648059 189.287027,192.250691 L187.878634,187.945032 C186.912878,188.3424 185.947123,188.47318 185.021607,188.47318 C182.033802,188.47318 180.539899,186.54167 180.539899,183.070986 L180.539899,171.290784 L175.967652,171.290784 L175.967652,192.295961 L180.49463,192.295961 L180.49463,189.745764 C181.681704,191.591765 183.396925,192.824108 186.032633,192.824108 L186.032633,192.824108 Z M169.141975,188.121082 L161.672461,188.121082 L161.672461,178.629518 C161.672461,176.521958 162.416898,175.113565 164.705537,175.113565 C165.892611,175.113565 167.386514,175.510933 168.744607,176.300639 L170.06246,172.392348 C168.613828,171.381323 166.330219,170.762636 164.353439,170.762636 C158.946215,170.762636 157.059974,173.664932 157.059974,178.544008 L157.059974,188.121082 L152.794555,188.121082 L152.794555,192.295961 L157.059974,192.295961 L157.059974,198.66894 L161.672461,198.66894 L161.672461,192.295961 L169.141975,192.295961 L169.141975,188.121082 L169.141975,188.121082 Z M110.64839,183.639374 C111.136298,186.672449 112.977269,188.739768 116.231663,188.739768 C119.174199,188.739768 121.065469,186.893767 121.548347,183.639374 L110.64839,183.639374 Z M126.296644,181.793373 C126.251375,188.3424 122.207274,192.824108 116.317173,192.824108 C110.165513,192.824108 105.859854,188.3424 105.859854,181.793373 C105.859854,175.118595 110.341562,170.767666 116.629032,170.767666 C119.792886,170.767666 122.690152,171.557373 125.24035,173.710202 L122.99698,177.095375 C121.241519,175.686982 118.99815,174.897276 116.89059,174.897276 C113.948055,174.897276 111.267077,176.2604 110.608151,180.037911 L126.206105,180.037911 C126.251375,180.611328 126.296644,181.179715 126.296644,181.793373 L126.296644,181.793373 Z M146.376306,186.934008 C145.103723,187.728744 142.513285,188.739768 139.832308,188.739768 C137.327381,188.739768 135.833477,187.814253 135.833477,186.275081 C135.833477,184.871717 137.41289,184.474349 139.38967,184.212791 L141.5425,183.905962 C146.114747,183.242006 148.881234,181.310495 148.881234,177.618493 C148.881234,173.619663 145.365281,170.762636 139.30416,170.762636 C135.873717,170.762636 132.709863,171.642882 130.204935,173.488883 L132.357764,177.050106 C133.896937,175.863032 136.185576,174.852006 139.34943,174.852006 C142.468015,174.852006 144.137967,175.772492 144.137967,177.402204 C144.137967,178.584248 142.950893,179.248205 140.445965,179.595273 L138.293136,179.902101 C133.590108,180.566058 131.039911,182.673618 131.039911,186.099031 C131.039911,190.273911 134.470354,192.824108 139.787038,192.824108 C143.126942,192.824108 146.160017,192.074643 148.353086,190.62601 L146.376306,186.934008 L146.376306,186.934008 Z M202.737182,188.48324 C201.796576,188.48324 200.92639,188.317251 200.116564,187.990302 C199.311768,187.658324 198.612602,187.195566 198.024094,186.602029 C197.435587,186.008492 196.972829,185.294236 196.635821,184.46429 C196.298812,183.634343 196.132824,182.718888 196.132824,181.722953 C196.132824,180.721988 196.298812,179.811562 196.635821,178.981616 C196.972829,178.15167 197.435587,177.437413 198.024094,176.843876 C198.612602,176.250339 199.311768,175.787581 200.116564,175.455603 C200.92639,175.123625 201.796576,174.962666 202.737182,174.962666 C203.677787,174.962666 204.553002,175.123625 205.357799,175.455603 C206.167624,175.787581 206.871821,176.250339 207.460329,176.843876 C208.058896,177.437413 208.521653,178.15167 208.863692,178.981616 C209.2007,179.811562 209.366689,180.721988 209.366689,181.722953 C209.366689,182.718888 209.2007,183.634343 208.863692,184.46429 C208.521653,185.294236 208.058896,186.008492 207.460329,186.602029 C206.871821,187.195566 206.167624,187.658324 205.357799,187.990302 C204.553002,188.317251 203.677787,188.48324 202.737182,188.48324 L202.737182,188.48324 Z M202.737181,192.824108 C204.366893,192.824108 205.875886,192.54243 207.264159,191.974043 C208.652432,191.410685 209.854596,190.63104 210.865621,189.640134 C211.881676,188.649229 212.671383,187.477245 213.2448,186.129211 C213.818217,184.776148 214.104926,183.307395 214.104926,181.722953 C214.104926,180.13851 213.818217,178.669758 213.2448,177.316695 C212.671383,175.968661 211.881676,174.791647 210.865621,173.800741 C209.854596,172.809836 208.652432,172.03522 207.264159,171.466833 C205.875886,170.903476 204.366893,170.621797 202.737181,170.621797 C201.107469,170.621797 199.598476,170.903476 198.210203,171.466833 C196.82193,172.03522 195.629826,172.809836 194.623831,173.800741 C193.617836,174.791647 192.828129,175.968661 192.254712,177.316695 C191.681295,178.669758 191.394586,180.13851 191.394586,181.722953 C191.394586,183.307395 191.681295,184.776148 192.254712,186.129211 C192.828129,187.477245 193.617836,188.649229 194.623831,189.640134 C195.629826,190.63104 196.82193,191.410685 198.210203,191.974043 C199.598476,192.54243 201.107469,192.824108 202.737181,192.824108 L202.737181,192.824108 Z M83.9492805,181.793373 C83.9492805,185.485375 86.368699,188.51845 90.3222595,188.51845 C94.099771,188.51845 96.6499685,185.616154 96.6499685,181.793373 C96.6499685,177.970591 94.099771,175.073325 90.3222595,175.073325 C86.368699,175.073325 83.9492805,178.101371 83.9492805,181.793373 L83.9492805,181.793373 Z M100.955627,181.793373 L100.955627,192.295961 L96.38841,192.295961 L96.38841,189.745764 C94.934747,191.637034 92.741678,192.824108 89.7538725,192.824108 C83.863771,192.824108 79.2512835,188.211621 79.2512835,181.793373 C79.2512835,175.380154 83.863771,170.762636 89.7538725,170.762636 C92.741678,170.762636 94.934747,171.949711 96.38841,173.840981 L96.38841,171.290784 L100.955627,171.290784 L100.955627,181.793373 Z M75.2071835,171.290784 L75.2071835,184.474349 C75.2071835,189.438935 72.0433285,192.778839 66.9479635,192.824108 C64.2669865,192.869379 61.49547,192.034402 59.5639595,189.086837 C58.1153265,191.415716 55.826688,192.824108 52.6175635,192.824108 C50.3792245,192.824108 48.1811252,192.165182 46.4659035,189.705524 L46.4659035,192.295961 L41.8986858,192.295961 L41.8986858,171.290784 L46.5111733,171.290784 L46.5111733,182.935177 C46.5111733,186.581909 48.5332234,188.51845 51.651808,188.51845 C54.6848835,188.51845 56.224056,186.54167 56.224056,182.980446 L56.224056,171.290784 L60.8365435,171.290784 L60.8365435,182.935177 C60.8365435,186.581909 62.949133,188.51845 65.9771785,188.51845 C69.100793,188.51845 70.594696,186.54167 70.594696,182.980446 L70.594696,171.290784 L75.2071835,171.290784 L75.2071835,171.290784 Z" fill="#110F0D" transform="translate(128.001806, 184.645368) scale(1, -1) translate(-128.001806, -184.645368) "></path>
	</g>
</svg>
